X:14
T:Stewart Robertson's Strathspey
C:Robert Petrie
S:Petrie's Collection of Strathspey Reels and Country Dances &c., 1790
Z:Steve Wyrick , 3/5/04
N:Petrie's First Collection, page 7
L:1/8
M:C
R:Strathspey
K:Gm
D| G2 TB>c   (d/c/d/=e/) fd    | c<Af>d               (c/B/A/G/) F>A|\
   G>AB>c     db/a/      g>d   | c<Af>A                BGG         :|
d|Tg>bg<d     B<d       Tg2    |Tf>af<c                A<c      Tf2 |\
   g>bg>d     B>dG<g           | f>c d/c/B/A/          B<GG>d       |
  Tg>bg<d     B<d       Tgf/g/ |Tf>af<c                A>cf<a       |\
   bg(^f/g/a) gd        (c/d/e)|(d/c/d/e/) (d/c/B/A/)  BGG         |]
